build/flags/Mauritania.svg

<svg xmlns="http://www.w3.org/2000/svg" fill="none" viewBox="0 0 28 28" focusable="false"><defs><filter id="Mauritania_svg__a"><feColorMatrix values="0 0 0 0 1 0 0 0 0 1 0 0 0 0 1 0 0 0 1 0"/></filter></defs><mask id="Mauritania_svg__b" width="28" height="20" x="0" y="4" maskUnits="userSpaceOnUse"><g filter="url(#Mauritania_svg__a)"><rect width="28" height="20" y="4" fill="#FFF" rx="3"/><rect width="28" height="20" y="4" stroke="#969696" stroke-opacity="0" stroke-width="0" rx="3"/></g></mask><path fill="none" d="M0 0H28V28H0z"/><rect width="28" height="20" y="4" fill="#FFF" rx="3"/><rect width="28" height="20" y="4" rx="3"/><g mask="url(#Mauritania_svg__b)"><path fill="#108B4D" d="M0 4H28V24H0z"/><path d="M0 4H28V24H0z"/><path fill="#FFC941" fill-rule="evenodd" d="M12.3519 13.739L14 12.5641L15.6481 13.739L15.04 11.8085L16.6667 10.6041L14.6428 10.5859L14 8.66669L13.3573 10.5859L11.3333 10.6041L12.96 11.8085L12.3519 13.739ZM19.8137 11.7334C19.8622 12.0408 19.8875 12.356 19.8875 12.6771C19.8875 15.9908 17.2012 18.6771 13.8875 18.6771C10.5737 18.6771 7.88745 15.9908 7.88745 12.6771C7.88745 12.356 7.91267 12.0408 7.96124 11.7334C8.41393 14.5987 10.8948 16.7896 13.8875 16.7896C16.8801 16.7896 19.361 14.5987 19.8137 11.7334Z"/><path d="M12.3519 13.739L14 12.5641L15.6481 13.739L15.04 11.8085L16.6667 10.6041L14.6428 10.5859L14 8.66669L13.3573 10.5859L11.3333 10.6041L12.96 11.8085L12.3519 13.739ZM19.8137 11.7334C19.8622 12.0408 19.8875 12.356 19.8875 12.6771C19.8875 15.9908 17.2012 18.6771 13.8875 18.6771C10.5737 18.6771 7.88745 15.9908 7.88745 12.6771C7.88745 12.356 7.91267 12.0408 7.96124 11.7334C8.41393 14.5987 10.8948 16.7896 13.8875 16.7896C16.8801 16.7896 19.361 14.5987 19.8137 11.7334Z"/></g></svg>

<svg xmlns="http://www.w3.org/2000/svg" fill="none" viewBox="0 0 28 28" focusable="false"><path fill="none" d="M0 0h28v28H0z"/><rect width="28" height="20" y="4" fill="#FFF" rx="3"/><rect width="28" height="20" y="4" rx="3"/><mask id="Mauritania_svg__a" width="28" height="20" x="0" y="4" mask-type="alpha" maskUnits="userSpaceOnUse"><rect width="28" height="20" y="4" fill="#FFF" rx="3"/><rect width="28" height="20" y="4" stroke="#979797" stroke-opacity="0" stroke-width="0" rx="3"/></mask><g mask="url(#Mauritania_svg__a)"><path fill="#108B4D" d="M0 4h28v20H0z"/><path d="M0 4h28v20H0z"/></g><g mask="url(#Mauritania_svg__a)"><mask id="Mauritania_svg__b" fill="#fff"><path fill-rule="evenodd" d="M12.352 13.739 14 12.564l1.648 1.175-.608-1.93 1.627-1.205-2.024-.018L14 8.666l-.643 1.92-2.024.018 1.627 1.205zm7.462-2.006q.072.462.073.944a6 6 0 1 1-11.926-.944 6.001 6.001 0 0 0 11.853 0" clip-rule="evenodd"/></mask><path fill="#FFC941" fill-rule="evenodd" d="M12.352 13.739 14 12.564l1.648 1.175-.608-1.93 1.627-1.205-2.024-.018L14 8.666l-.643 1.92-2.024.018 1.627 1.205zm7.462-2.006q.072.462.073.944a6 6 0 1 1-11.926-.944 6.001 6.001 0 0 0 11.853 0" clip-rule="evenodd" mask="url(#Mauritania_svg__b)"/></g></svg>
